!!!COM: Gaspar van Weerbeke
!!!CDT: ~1450-~1517
!!!OPR: Missa N'as tu pas
!!!OTL: Credo
!!!OMV: 3
!!!AGN: Mass
!!!SCT: Gas0203c
!!!SCA: Gas0203c
!!!voices: 4
**kern	**text	**kern	**text	**kern	**text	**kern	**text
*part4	*part4	*part3	*part3	*part2	*part2	*part1	*part1
*staff4	*staff4	*staff3	*staff3	*staff2	*staff2	*staff1	*staff1
*I"Bassus	*	*I"Tenor	*	*I"Altus	*	*I"Superius	*
*I'B	*	*I'T	*	*I'A	*	*I'S	*
*clefF4	*	*clefGv2	*	*clefGv2	*	*clefG2	*
*k[b-]	*	*k[b-]	*	*k[b-]	*	*k[b-]	*
*M2/2	*	*M2/2	*	*M2/2	*	*M2/2	*
*met(C|)	*	*met(C|)	*	*met(C|)	*	*met(C|)	*
=1	=1	=1	=1	=1	=1	=1	=1
1r	.	1r	.	2F	Pa-	2f	Pa-
.	.	.	.	4F	-trem	4f	-trem
.	.	.	.	4F	om-	4f	om-
=2	=2	=2	=2	=2	=2	=2	=2
1r	.	1r	.	4F	-ni-	4a	-ni-
.	.	.	.	4G	-pot-	4b-y	-pot-
.	.	.	.	4.A	-en-	8ccL	-en-
.	.	.	.	.	.	8b-y	.
.	.	.	.	.	.	8a	.
.	.	.	.	8B-y	.	8gJ	.
=3	=3	=3	=3	=3	=3	=3	=3
1r	.	1r	.	8cL	.	4a	-tem,
.	.	.	.	8B-y	.	.	.
.	.	.	.	8A	.	4cc	fa-
.	.	.	.	8GJ	.	.	.
.	.	.	.	4A	-tem,	4cc	-cto-
.	.	.	.	4c	fa-	4cc	-rem
=4	=4	=4	=4	=4	=4	=4	=4
1r	.	1r	.	4c	-cto-	4a	ce-
.	.	.	.	4c	-rem	4g	-li
.	.	.	.	2c	ce-	4.e	et
.	.	.	.	.	.	8f	.
!!LO:LB:g=original
=5	=5	=5	=5	=5	=5	=5	=5
1r	.	1r	.	4c	-li	4g	.
.	.	.	.	4c	et	8aL	ter-
.	.	.	.	.	.	8gJ	.
.	.	.	.	4B-y	ter-	8gL	.
.	.	.	.	.	.	8fJ	.
.	.	.	.	4A	-re,	4a	-re,
=6	=6	=6	=6	=6	=6	=6	=6
4FF	Vi-	4F	Vi-	1r	.	1r	.
4FF	-si-	4F	-si-	.	.	.	.
4.FF	-bi-	4A	-bi-	.	.	.	.
.	.	4A	-li-	.	.	.	.
8FF	-li-	.	.	.	.	.	.
=7	=7	=7	=7	=7	=7	=7	=7
4.AA	-um	8cL	-um	1r	.	1r	.
.	.	8B-y	.	.	.	.	.
.	.	8A	.	.	.	.	.
8BB-y	.	8GJ	.	.	.	.	.
4C	.	4.A	.	.	.	.	.
4C	o-	.	.	.	.	.	.
.	.	8G	.	.	.	.	.
=8	=8	=8	=8	=8	=8	=8	=8
8CL	-mni-	4E	.	1r	.	1r	.
8BB-y	.	.	.	.	.	.	.
8AA	.	4.c	o-	.	.	.	.
8GGJ	.	.	.	.	.	.	.
2AA	-um,	.	.	.	.	.	.
.	.	8c	-mni-	.	.	.	.
.	.	4c	-um,	.	.	.	.
=9	=9	=9	=9	=9	=9	=9	=9
4C	et	4A	et	1r	.	1r	.
4C	in-	4G	in-	.	.	.	.
4C	-vi-	4A	-vi-	.	.	.	.
4C	-si-	4G	-si-	.	.	.	.
!!LO:LB:g=original
=10	=10	=10	=10	=10	=10	=10	=10
2C	-bi-	4.E	-bi-	1r	.	1r	.
.	.	8F	.	.	.	.	.
4BB-y	-li-	4G	-li-	.	.	.	.
4AA	-um.	4A	-um.	.	.	.	.
=11	=11	=11	=11	=11	=11	=11	=11
1r	.	1r	.	4A	Et	4e	Et
.	.	.	.	4A	in	4e	in
.	.	.	.	4A	u-	4e	u-
.	.	.	.	4A	-num	4f	-num
=12	=12	=12	=12	=12	=12	=12	=12
1r	.	1r	.	4.G	Do-	4.g	Do-
.	.	.	.	8A	.	16fLL	.
.	.	.	.	.	.	16eJJ	.
.	.	.	.	8B-yL	.	8dL	.
.	.	.	.	8cJ	.	8cJ	.
.	.	.	.	[4d	.	4f	.
=13	=13	=13	=13	=13	=13	=13	=13
1r	.	1r	.	4d]	.	4g	.
.	.	.	.	2c	.	4e	.
.	.	.	.	.	.	2d	-mi-
.	.	.	.	4Bni	-mi-	.	.
=14	=14	=14	=14	=14	=14	=14	=14
4r	.	4r	.	4c	-num	4c	-num
4C	Je-	4G	Je-	4e	Je-	4cc	Je-
4C	-sum	4G	-sum	4e	-sum	4cc	-sum
4C	Chri-	4G	Chri-	4e	Chri-	4cc	Chri-
!!LO:PB:g=original
=15	=15	=15	=15	=15	=15	=15	=15
2C	-stum,	2E	-stum,	2e	-stum,	4.cc	-stum,
.	.	.	.	.	.	8b-y	.
4D	Fi-	4F	Fi-	4d	Fi-	4a	.
4AA	-li-	4E	-li-	4c	-li-	4cc	Fi-
=16	=16	=16	=16	=16	=16	=16	=16
2AA	-um	4.E	-um	8AL	-um	2cc	-li-um
.	.	.	.	8B-y	.	.	.
.	.	.	.	8c	.	.	.
.	.	8F	.	8dJ	.	.	.
4GG	De-	4G	De-	4e	De-	4b-y	De-
4FF	-i	4A	-i.	[4f	-i	4a	-i.
=17	=17	=17	=17	=17	=17	=17	=17
4F	u-	1r	.	4f]	.	1r	.
4F	-ni-	.	.	4A	u-	.	.
2D	-ge-	.	.	4A	-ni-	.	.
.	.	.	.	4B-y	.	.	.
=18	=18	=18	=18	=18	=18	=18	=18
4.C	.	1r	.	4A	-ge-	1r	.
.	.	.	.	8GL	.	.	.
16BB-yLL	.	.	.	8FJ	.	.	.
16AAJJ	.	.	.	.	.	.	.
8GGL	.	.	.	8EL	.	.	.
8FFJ	.	.	.	8DJ	.	.	.
[4BB-y	.	.	.	[4G	.	.	.
=19	=19	=19	=19	=19	=19	=19	=19
8BB-L]	.	1r	.	4G]	.	1r	.
8CJ	.	.	.	.	.	.	.
4AA	.	.	.	2F	.	.	.
*lig	*	*	*	*	*	*	*
2GG	-ni-	.	.	.	.	.	.
.	.	.	.	4E	-ni-	.	.
=20	=20	=20	=20	=20	=20	=20	=20
2FF	-tum.	4r	.	2F	-tum.	4r	.
.	.	4c	Et	.	.	4a	Et
*Xlig	*	*	*	*	*	*	*
2r	.	4c	ex	2r	.	4a	ex
.	.	4c	Pa-	.	.	4a	Pa-
!!LO:LB:g=original
=21	=21	=21	=21	=21	=21	=21	=21
1r	.	4d	-tre	1r	.	8b-yL	-tre
.	.	.	.	.	.	8a	.
.	.	2B-y	na-	.	.	8g	.
.	.	.	.	.	.	8fJ	.
.	.	.	.	.	.	4g	.
.	.	8AL	.	.	.	[4a	na-
.	.	8GJ	.	.	.	.	.
=22	=22	=22	=22	=22	=22	=22	=22
1r	.	4F	.	1r	.	4a]	.
.	.	4G	.	.	.	2g	.
.	.	2A	.	.	.	.	.
.	.	.	.	.	.	4f#i	.
=23	=23	=23	=23	=23	=23	=23	=23
4r	.	4G	-tum	4r	.	4g	-tum
4F	An-	4c	an-	4f	An-	4a	an-
4F	-te	4c	-te	4f	-te	4a	-te
4F	om-	4c	om-	[4f	om-	4a	om-
=24	=24	=24	=24	=24	=24	=24	=24
4BB-y	-ni-	8dL	-ni-	8fL]	.	8b-yL	-ni-
.	.	8c	.	8fJ	-ni-	8a	.
4BB-y	-a	8B-y	.	4d	-a	8g	.
.	.	8AJ	.	.	.	8fJ	.
4C	se-	4G	.	4e	se-	8eL	.
.	.	.	.	.	.	8dJ	.
4GG	.	4B-y	-a	4d	-cu-	[4g	-a
=25	=25	=25	=25	=25	=25	=25	=25
4AA	.	4c	se-	1c	-la.	4g]	.
4FF	.	4A	.	.	.	2f	se-
2C	-cu-	2G	-cu-	.	.	.	.
.	.	.	.	.	.	4e	-cu-
=26	=26	=26	=26	=26	=26	=26	=26
2FF	-la.	4F	-la.	2A	De-	4f	-la.
.	.	4A	De-	.	.	4c	De-
2r	.	4A	-um	4c	-um	4e	-um
.	.	4A	de	4c	de	4f	de
!!LO:LB:g=original
=27	=27	=27	=27	=27	=27	=27	=27
2r	.	4G	De-	4d	De-	8gL	De-
.	.	.	.	.	.	8f	.
.	.	2c	-o,	4e	-o.	8e	.
.	.	.	.	.	.	8dJ	.
4r	.	.	.	2r	.	4e	-o,
4C	Lu-	4c	lu-	.	.	4g	lu-
=28	=28	=28	=28	=28	=28	=28	=28
4C	-men	4c	-men	1r	.	4g	-men
4C	de	4c	de	.	.	4g	de
2E	lu-	4.G	lu-	.	.	2g	lu-
.	.	8A	.	.	.	.	.
=29	=29	=29	=29	=29	=29	=29	=29
4D	-mi-	4Bni	-mi-	1r	.	4f	-mi-
4C	-ne,	4c	-ne,	.	.	4e	-ne,
2F	De-	4A	De-	.	.	4r	.
.	.	4A	-um	.	.	4c	De-
=30	=30	=30	=30	=30	=30	=30	=30
4C	-um	4A	ve-	1r	.	4e	-um
4D	ve-	4A	-rum	.	.	4f	ve-
4E	-rum	4.G	de	.	.	4.g	-rum
[4G	de	.	.	.	.	.	.
.	.	8A	.	.	.	8f	.
=31	=31	=31	=31	=31	=31	=31	=31
4G]	.	8B-yL	.	1r	.	8dL	.
.	.	8cJ	.	.	.	8e	.
8FL	.	4.d	.	.	.	8f	.
8EJ	.	.	.	.	.	8gJ	.
4D	.	.	.	.	.	2a	de
.	.	8c	De-	.	.	.	.
4F	De-	4A	.	.	.	.	.
=32	=32	=32	=32	=32	=32	=32	=32
4E	-o	4G	-o	1r	.	4bni	De-
4C	ve-	2c	ve-	.	.	4cc	-o
2D	.	.	.	.	.	4.f	ve-
.	.	4Bni	.	.	.	.	.
.	.	.	.	.	.	8d	.
!!LO:LB:g=original
=33	=33	=33	=33	=33	=33	=33	=33
2C	-ro.	2c	-ro.	1r	.	2e	-ro.
4C	Ge-	2r	.	.	.	2r	.
4C	-ni-	.	.	.	.	.	.
=34	=34	=34	=34	=34	=34	=34	=34
8CL	-tum,	1r	.	4c	Ge-	1r	.
8BB-y	.	.	.	.	.	.	.
8AA	.	.	.	4c	-ni-	.	.
8GGJ	.	.	.	.	.	.	.
4AA	.	.	.	8cL	-tum,	.	.
.	.	.	.	8B-y	.	.	.
4D	non	.	.	8A	.	.	.
.	.	.	.	8GJ	.	.	.
=35	=35	=35	=35	=35	=35	=35	=35
4.AA	fa-	1r	.	8FL	non	1r	.
.	.	.	.	8EJ	.	.	.
.	.	.	.	2A	fa-	.	.
8C	.	.	.	.	.	.	.
2BB-y	.	.	.	.	.	.	.
.	.	.	.	4G	.	.	.
=36	=36	=36	=36	=36	=36	=36	=36
2AA	-ctum,	1r	.	4A	-ctum,	4r	.
.	.	.	.	4F	con-	4cc	Con-
2r	.	.	.	4F	-sub-	4cc	-sub-
.	.	.	.	4F	-stan-	4cc	-stan-
=37	=37	=37	=37	=37	=37	=37	=37
1r	.	1r	.	4F	-ti-	8ccL	-ti-
.	.	.	.	.	.	8b-y	.
.	.	.	.	2f	-a-	8a	.
.	.	.	.	.	.	8gJ	.
.	.	.	.	.	.	2cc	-a-
.	.	.	.	4e	-lem	.	.
!!LO:PB:g=original
=38	=38	=38	=38	=38	=38	=38	=38
1r	.	1r	.	4d	Pa-	4b-y	-lem
.	.	.	.	4c	.	2a	Pa-
.	.	.	.	2B-y	.	.	.
.	.	.	.	.	.	4g	.
=39	=39	=39	=39	=39	=39	=39	=39
4r	.	4r	.	4A	-tri:	4a	-tri:
4FF	Per	4c	Per	4A	per	4a	per
4FF	quem	4c	quem	4F	quem	4a	quem
4FF	om-	4c	om-	4c	om-	4a	om-
=40	=40	=40	=40	=40	=40	=40	=40
4BB-y	-ni-	4d	-ni-	4B-y	-ni-	8b-yL	-ni-
.	.	.	.	.	.	8a	.
4BB-y	-a	4d	-a	4B-y	-a	8g	.
.	.	.	.	.	.	8fJ	.
4.C	fa-	[2c	fa-	[2G	fa-	4.e	-a
8D	.	.	.	.	.	8f	.
=41	=41	=41	=41	=41	=41	=41	=41
4E	.	4c]	.	4G]	.	4g	.
4F	.	4A	.	2c	.	2f	fa-
2C	-cta	2G	-cta	.	.	.	.
.	.	.	.	4c	-cta	4e	-cta
=42	=42	=42	=42	=42	=42	=42	=42
2FF	sunt.	2F	sunt.	2A	sunt.	2f	sunt.
*	*	*	*	*	*edit	*	*
4r	.	2r	.	2E	Qui	2r	.
4AA	Qui	.	.	.	.	.	.
!!LO:LB:g=original
=43	=43	=43	=43	=43	=43	=43	=43
4AA	pro-	1r	.	4E	pro-	1r	.
4AA	-pter	.	.	4F	-pter	.	.
4.GG	nos	.	.	4E	nos	.	.
.	.	.	.	[4G	ho-	.	.
8AA	.	.	.	.	.	.	.
=44	=44	=44	=44	=44	=44	=44	=44
4BB-y	.	1r	.	8GL]	.	1r	.
.	.	.	.	8F	.	.	.
2GG	ho-	.	.	8E	.	.	.
.	.	.	.	8DJ	.	.	.
.	.	.	.	4.G	.	.	.
[4C	.	.	.	.	.	.	.
.	.	.	.	16FLL	.	.	.
.	.	.	.	16EJJ	.	.	.
=45	=45	=45	=45	=45	=45	=45	=45
4C]	.	2r	.	4D	.	2ra	.
4BBni	-mi-	.	.	4D	-mi-	.	.
2C	-nes,	4r	.	2C	-nes,	4r	.
.	.	4A	et	.	.	4e	Et
=46	=46	=46	=46	=46	=46	=46	=46
1r	.	4A	pro-	1r	.	4e	pro-
.	.	4A	-pter	.	.	4f	-pter
.	.	4.G	no-	.	.	4e	no-
.	.	.	.	.	.	[4g	-stram
.	.	8A	.	.	.	.	.
=47	=47	=47	=47	=47	=47	=47	=47
1r	.	4B-y	.	1r	.	8gL]	.
.	.	.	.	.	.	8f	.
.	.	2G	-stram	.	.	8e	.
.	.	.	.	.	.	8dJ	.
.	.	.	.	.	.	4g	.
.	.	[4c	sa-	.	.	4e	sa-
!!LO:LB:g=original
=48	=48	=48	=48	=48	=48	=48	=48
2r	.	4c]	.	2r	.	2d	-lu-
.	.	4Bni	-lu-	.	.	.	.
4.C	de-	2c	-tem	4r	.	4c	-tem
*	*	*	*	*	*Xedit	*	*
.	.	.	.	4c	de-	4cc	de-
8BB-y	.	.	.	.	.	.	.
=49	=49	=49	=49	=49	=49	=49	=49
8AAL	.	2r	.	4e	-scen-	4.cc	-scen-
8GGJ	.	.	.	.	.	.	.
4FF	.	.	.	4f	-dit	.	.
.	.	.	.	.	.	8b-y	.
4.F	-scen-	4r	.	4c	de	8aL	.
.	.	.	.	.	.	8gJ	.
.	.	4A	de-	4d	.	4f	.
16ELL	.	.	.	.	.	.	.
16DJJ	.	.	.	.	.	.	.
=50	=50	=50	=50	=50	=50	=50	=50
8CL	.	4.c	-scen-	2e	.	4e	-dit
8BB-y	.	.	.	.	.	.	.
8AA	.	.	.	.	.	4.cc	de
8GGJ	.	8B-y	.	.	.	.	.
4FF	.	8AL	.	4f	ce-	.	.
.	.	8GJ	.	.	.	8b-y	.
4F	-dit	4F	.	[4c	.	4a	.
=51	=51	=51	=51	=51	=51	=51	=51
4C	de	4E	-dit	8cL]	.	4g	.
.	.	.	.	8AJ	.	.	.
4D	.	4F	de	4B-y	.	2f	ce-
2C	ce-	2G	ce-	2c	.	.	.
.	.	.	.	.	.	4e	.
=52	=52	=52	=52	=52	=52	=52	=52
1FF;l	-lis.	1F;l	-lis.	1c;l	-lis.	1f;l	-lis.
!!LO:LB:g=original
=53	=53	=53	=53	=53	=53	=53	=53
1F	Et	1c	Et	1f	Et	1a	Et
=54	=54	=54	=54	=54	=54	=54	=54
2F	in-	2c	in-	2f	in-	2a	in-
2D	-car-	2d	-car-	2f	-car-	4a	-car-
.	.	.	.	.	.	[4b-y	-na-
=55	=55	=55	=55	=55	=55	=55	=55
2BB-y	-na-	2d	-na-	8fL	-na-	8b-L]	.
.	.	.	.	8e	.	8a	.
.	.	.	.	8d	.	8g	.
.	.	.	.	8cJ	.	8fJ	.
2BB-y	-tus	2B-y	-tus	4.d	-tus	2g	-tus
.	.	.	.	8c	.	.	.
=56	=56	=56	=56	=56	=56	=56	=56
1FF	est	1c	est	4A	est	1a	est
.	.	.	.	2f	de	.	.
.	.	.	.	8eL	.	.	.
.	.	.	.	8dJ	.	.	.
=57	=57	=57	=57	=57	=57	=57	=57
2FF	de	2A	de	4c	Spi-	2a	de
.	.	.	.	4c	-ri-	.	.
8FFL	Spi-	4c	Spi-	4.A	-tu	2a	Spi-
8GG	.	.	.	.	.	.	.
8AA	.	4c	-ri-	.	.	.	.
8BB-yJ	.	.	.	8G	.	.	.
!!LO:PB:g=original
=58	=58	=58	=58	=58	=58	=58	=58
4C	.	4.c	-tu	4E	.	4g	-ri-
4FF	-ri-	.	.	8FL	San-	4.a	-tu
.	.	8B-y	.	8GJ	.	.	.
4F	-tu	4A	.	8AL	.	.	.
.	.	.	.	8B-yJ	.	8g	.
4C	San-	[4G	San-	[4c	.	4e	.
=59	=59	=59	=59	=59	=59	=59	=59
*lig	*	*	*	*	*	*	*
2D	.	4G]	.	4c]	.	2f	San-
.	.	4F	.	4Bni	.	.	.
2C	-cto	2G	-cto	2c	-cto	2e	-cto
*Xlig	*	*	*	*	*	*	*
=60	=60	=60	=60	=60	=60	=60	=60
2D	ex	2F	ex	4.A	ex	2a	ex
.	.	.	.	8F	.	.	.
2F	Ma-	2A	Ma-	4F	Ma-	2a	Ma-
.	.	.	.	4f	.	.	.
=61	=61	=61	=61	=61	=61	=61	=61
2G	-ri-	2B-y	-ri-	4e	.	2g	-ri-
.	.	.	.	2d	-ri-	.	.
4D	-a	4A	-a	.	.	4f	-a
4E	.	[4G	Vir-	4Bni	-a	[4g	Vir-
=62	=62	=62	=62	=62	=62	=62	=62
2C	Vir-	4G]	.	4c	Vir-	4g]	.
.	.	2c	.	8GL	.	4e	.
.	.	.	.	8AJ	.	.	.
2G	-gi-	.	.	4B-y	.	2d	-gi-
.	.	4Bni	-gi-	4G	-gi-	.	.
!!LO:LB:g=original
=63	=63	=63	=63	=63	=63	=63	=63
1C	-ne:	1c	-ne:	1G	-ne:	1c	-ne:
=64	=64	=64	=64	=64	=64	=64	=64
*	*edit	*	*	*	*	*	*
2G	Et	2B-y	Et	2r	.	2d	Et
*col	*	*	*	*	*	*	*
4.G	ho-	4.B-y	ho-	2d	Et	2g	ho-
8F	.	8A	.	.	.	.	.
*Xcol	*	*	*	*	*	*	*
=65	=65	=65	=65	=65	=65	=65	=65
4E	.	4G	-mo	4e	ho-	4g	-mo
4D	.	4F	.	4f	.	2a	fa-
4C	-mo	4c	fa-	4e	-mo	.	.
4F	.	8B-yL	.	4d	.	8gL	.
.	.	8AJ	.	.	.	8fJ	.
=66	=66	=66	=66	=66	=66	=66	=66
4C	fa-	4G	.	4c	fa-	8eL	.
.	.	.	.	.	.	8dJ	.
4D	.	4F	.	4B-y	.	2f	.
2C	-ctus	2G	-ctus	2c	-ctus	.	.
.	.	.	.	.	.	4e	-ctus
=67	=67	=67	=67	=67	=67	=67	=67
1FFl	est.	1Fl	est.	1cl	est.	1fl	est.
!!LO:LB:g=original
=68||	=68||	=68||	=68||	=68||	=68||	=68||	=68||
*M2/2	*	*M2/2	*	*M2/2	*	*M2/2	*
*met(C|)	*	*met(C|)	*	*met(C|)	*	*met(C|)	*
1r	.	1r	.	2r	.	4f	Cru-
.	.	.	.	.	.	4f	-ci-
.	.	.	.	4F	Cru-	4f	-fi-
.	.	.	.	4F	-ci-	4c	-xus
=69	=69	=69	=69	=69	=69	=69	=69
1r	.	1r	.	4F	-fi-	4f	e-
.	.	.	.	4C	-xus	4g	-ti-
.	.	.	.	4F	e-	4a	-am
.	.	.	.	4G	-ti-	[4b-y	pro
=70	=70	=70	=70	=70	=70	=70	=70
1r	.	1r	.	4A	-am	4b-]	.
.	.	.	.	4c	pro	2a	no-
.	.	.	.	2B-y	no-	.	.
.	.	.	.	.	.	4g	.
=71	=71	=71	=71	=71	=71	=71	=71
4r	.	4r	.	2A	-bis:	2a	-bis:
*	*Xedit	*	*	*	*	*	*
4AA	sub	4A	sub	.	.	.	.
4C	Pon-	4A	Pon-	2r	.	2r	.
4C	-ti-	4A	-ti-	.	.	.	.
=72	=72	=72	=72	=72	=72	=72	=72
2C	-o	8GL	-o	1r	.	1r	.
.	.	8F	.	.	.	.	.
.	.	8E	.	.	.	.	.
.	.	8DJ	.	.	.	.	.
4AA	Pi-	4C	.	.	.	.	.
[4BB-y	-la-	[4D	Pi-	.	.	.	.
=73	=73	=73	=73	=73	=73	=73	=73
8BB-L]	.	8DL]	.	1r	.	1r	.
8AAJ	.	8EJ	.	.	.	.	.
4FF	.	2F	-la-	.	.	.	.
2GG	.	.	.	.	.	.	.
.	.	4E	.	.	.	.	.
!!LO:LB:g=original
=74	=74	=74	=74	=74	=74	=74	=74
1FF	-to.	2F	-to.	1r	.	2r	.
.	.	2r	.	.	.	4f	pas-
.	.	.	.	.	.	4f	-sus
=75	=75	=75	=75	=75	=75	=75	=75
1r	.	1r	.	4F	pas-	4f	et
.	.	.	.	4F	-sus	4c	se-
.	.	.	.	4F	et	4f	-pul-
.	.	.	.	4C	se-	4g	-tus
=76	=76	=76	=76	=76	=76	=76	=76
1r	.	1r	.	4F	-pul-	4a	est.
.	.	.	.	4F	-tus	4a	Et
.	.	.	.	4G	est.	4b-y	re-
.	.	.	.	4A	Et	4a	-sur-
=77	=77	=77	=77	=77	=77	=77	=77
1r	.	1r	.	4B-y	re-	4g	-re-
.	.	.	.	4A	-sur-	4f	-xit
.	.	.	.	4G	-re-	4b-y	ter-
.	.	.	.	4F	-xit	8a	-ti-
.	.	.	.	.	.	8a	-a
=78	=78	=78	=78	=78	=78	=78	=78
1r	.	2r	.	4B-y	ter-	4g	di-
.	.	.	.	8A	-ti-	4f	-e,
.	.	.	.	8A	-a	.	.
.	.	4E	Se-	4G	di-	4g	se-
.	.	4F	-cun-	4F	-e,	[4a	-cun-
!!LO:PB:g=original
=79	=79	=79	=79	=79	=79	=79	=79
!!LO:S:dash
2r	.	(4D	-dum	4A	se-	8aL]	.
.	.	.	.	.	.	8gJ	.
.	.	4D)	.	4B-y	-cun-	4f	.
4C	Se-	8CL	Scri-	2c	-dum	2e	-dum
.	.	8D	.	.	.	.	.
4AA	-cun-	8E	.	.	.	.	.
.	.	8FJ	.	.	.	.	.
=80	=80	=80	=80	=80	=80	=80	=80
4GG	-dum	4.G	.	2B-y	Scri-	1r	.
8GL	Scri-	.	.	.	.	.	.
8FJ	.	8A	.	.	.	.	.
8EL	.	8B-yL	.	4G	.	.	.
8CJ	.	8cJ	.	.	.	.	.
[4F	.	[4d	-ptu-	[4A	-ptu-	.	.
=81	=81	=81	=81	=81	=81	=81	=81
4F]	.	4d]	.	4A]	.	1r	.
4E	.	2c	.	2G	.	.	.
2D	-ptu-	.	.	.	.	.	.
.	.	4Bni	.	4F	.	.	.
=82	=82	=82	=82	=82	=82	=82	=82
2C	-ras.	2c	-ras.	2G	-ras.	4e	Et
.	.	.	.	.	.	4e	a-
2r	.	2r	.	8AL	Et	8cL	-scen-
.	.	.	.	8B-y	.	8d	.
.	.	.	.	8c	.	8e	.
.	.	.	.	8dJ	.	8fJ	.
=83	=83	=83	=83	=83	=83	=83	=83
1r	.	1r	.	4e	a-	4g	.
.	.	.	.	4f	-scen-	4a	-dit
.	.	.	.	4e	-dit	4g	in
.	.	.	.	4c	in	[4cc	ce-
=84	=84	=84	=84	=84	=84	=84	=84
1r	.	2r	.	2d	ce-	4cc]	.
.	.	.	.	.	.	4bni	.
.	.	4r	.	2c	-lum.	2cc	-lum.
.	.	4c	Se-	.	.	.	.
!!LO:LB:g=original
=85	=85	=85	=85	=85	=85	=85	=85
4r	.	4G	-det	1r	.	1r	.
4C	Se-	4G	ad	.	.	.	.
4GG	-det	4B-y	dex-	.	.	.	.
4GG	ad	4B-y	-te-	.	.	.	.
=86	=86	=86	=86	=86	=86	=86	=86
4BB-y	dex-	4F	-ram	1r	.	1r	.
4AA	-te-	2A	Pa-	.	.	.	.
4FF	-ram	.	.	.	.	.	.
[4C	Pa-	8GL	.	.	.	.	.
.	.	8FJ	.	.	.	.	.
=87	=87	=87	=87	=87	=87	=87	=87
4C]	.	4E	.	4r	.	1r	.
8BB-yL	.	2F	.	4c	Et	.	.
8AAJ	.	.	.	.	.	.	.
2GG	.	.	.	4B-y	i-	.	.
.	.	4E	.	4B-y	-te-	.	.
=88	=88	=88	=88	=88	=88	=88	=88
2FF	-tris.	4F	-tris.	8AL	-rum	4r	.
.	.	.	.	8G	.	.	.
.	.	4F	Et	8F	.	4f	Et
.	.	.	.	8EJ	.	.	.
2r	.	4F	i-	4D	.	4a	i-
.	.	4G	-te-	4d	ven-	4b-y	-te-
=89	=89	=89	=89	=89	=89	=89	=89
2F	Et	4.A	-rum	4.c	-tu-	8ccL	-rum
.	.	.	.	.	.	8b-y	.
.	.	.	.	.	.	8a	.
.	.	8B-y	.	8B-y	.	8gJ	.
4F	i-	8cL	.	4A	.	4a	.
.	.	8B-y	.	.	.	.	.
4F	-te-	8A	.	4f	.	4cc	ven-
.	.	8GJ	.	.	.	.	.
=90	=90	=90	=90	=90	=90	=90	=90
4F	-rum	4A	.	4c	.	4cc	-tu-
4A	ven-	4A	ven-	2f	-tus	4cc	-rus
4G	-tu-	4B-y	-tu-	.	.	4.b-y	est:
4G	-rus	4B-y	-rus	4e	.	.	.
.	.	.	.	.	.	8g	.
!!LO:LB:g=original
=91	=91	=91	=91	=91	=91	=91	=91
4F	est	4c	est	2f	est	2a	.
4F	cum	4F	cum	.	.	.	.
4F	glo-	4A	glo-	2r	.	2r	.
4D	-ri-	4B-y	-ri-	.	.	.	.
=92	=92	=92	=92	=92	=92	=92	=92
2C	-a	8cL	-a,	1r	.	1r	.
.	.	8B-y	.	.	.	.	.
.	.	8A	.	.	.	.	.
.	.	8GJ	.	.	.	.	.
4F	ju-	4A	.	.	.	.	.
!!LO:S:dash
4F	-di-	(4c	ju-	.	.	.	.
=93	=93	=93	=93	=93	=93	=93	=93
2F	-ca-	4c)	.	1r	.	1r	.
.	.	4c	-di-	.	.	.	.
4G	-re	4B-y	-ca-	.	.	.	.
4A	.	4A	-re.	.	.	.	.
=94	=94	=94	=94	=94	=94	=94	=94
4F	vi-	1r	.	4A	vi-	1r	.
4F	-vos	.	.	4A	-vos	.	.
4E	et	.	.	8GL	et	.	.
.	.	.	.	8A	.	.	.
[4G	mor-	.	.	8B-y	.	.	.
.	.	.	.	8cJ	.	.	.
=95	=95	=95	=95	=95	=95	=95	=95
4G]	.	1r	.	4d	.	1r	.
4E	.	.	.	2c	mor-	.	.
2D	-tu-	.	.	.	.	.	.
.	.	.	.	4Bni	-tu-	.	.
=96	=96	=96	=96	=96	=96	=96	=96
2C	-os.	1r	.	2c	-os:	2r	.
2r	.	.	.	4r	.	2cc	cu-
.	.	.	.	4c	cu-	.	.
!!LO:LB:g=original
=97	=97	=97	=97	=97	=97	=97	=97
1r	.	1r	.	4f	-jus	4cc	-jus
.	.	.	.	4e	re-	4cc	re-
.	.	.	.	4f	-gni	4a	-gni
.	.	.	.	4e	non	4cc	non
=98	=98	=98	=98	=98	=98	=98	=98
1r	.	1r	.	4f	e-	4cc	e-
.	.	.	.	4c	-rit	4cc	-rit
.	.	.	.	8dL	fi-	4b-y	fi-
.	.	.	.	8eJ	.	.	.
.	.	.	.	4f	-nis.	4a	-nis.
=99	=99	=99	=99	=99	=99	=99	=99
4F	Et	4A	Et	4c	Et	1r	.
4F	in	4A	in	4c	in	.	.
4D	Spi-	4A	Spi-	4f	Spi-	.	.
4C	-ri-	4A	-ri-	4e	-ri-	.	.
=100	=100	=100	=100	=100	=100	=100	=100
8DL	-tum	8B-yL	-tum	2d	-tum	1r	.
8C	.	8A	.	.	.	.	.
8BB-y	.	8G	.	.	.	.	.
8AAJ	.	8FJ	.	.	.	.	.
4GG	.	4B-y	San-	2r	.	.	.
4D	San-	[4A	-ctum	.	.	.	.
=101	=101	=101	=101	=101	=101	=101	=101
4C	-ctum	4A]	.	1r	.	1r	.
4BB-y	Do-	2G	Do-	.	.	.	.
2AA	-mi-	.	.	.	.	.	.
.	.	4F#i	-mi-	.	.	.	.
=102	=102	=102	=102	=102	=102	=102	=102
4GG	-num,	4G	-num,	1r	.	1r	.
4D	et	4B-y	et	.	.	.	.
4C	.	4A	vi-	.	.	.	.
4BB-y	vi-	4G	-vi-	.	.	.	.
!!LO:PB:g=original
=103	=103	=103	=103	=103	=103	=103	=103
4C	-vi-	8AL	-fi-	1r	.	1r	.
.	.	8G	.	.	.	.	.
4D	-fi-	8F	.	.	.	.	.
.	.	8EJ	.	.	.	.	.
4.BB-y	-can-	8DL	.	.	.	.	.
.	.	8CJ	.	.	.	.	.
.	.	[4G	-can-	.	.	.	.
8GG	.	.	.	.	.	.	.
=104	=104	=104	=104	=104	=104	=104	=104
4AA	.	8GL]	.	1r	.	1r	.
.	.	8FJ	.	.	.	.	.
4BB-y	.	2F	.	.	.	.	.
2GG	.	.	.	.	.	.	.
.	.	4E	.	.	.	.	.
=105	=105	=105	=105	=105	=105	=105	=105
4FF	-tem:	4F	-tem:	2f	qui	4r	.
4F	qui	4c	qui	.	.	4a	Qui
4F	ex	4c	ex	4f	ex	4a	ex
4F	Pa-	4c	Pa-	4f	Pa-	4a	Pa-
=106	=106	=106	=106	=106	=106	=106	=106
2BB-y	-tre	4d	-tre	2d	-tre	8b-yL	-tre
.	.	.	.	.	.	8a	.
.	.	4.B-y	Fi-	.	.	8g	.
.	.	.	.	.	.	8fJ	.
4GG	Fi-	.	.	4d	Fi-	4b-y	.
.	.	8A	.	.	.	.	.
4D	-li-	4F	.	4f	.	[4a	Fi-
=107	=107	=107	=107	=107	=107	=107	=107
4E-i	-o-	4G	-li-	4e-i	-li-	4a]	.
4G	.	4B-y	.	2d	-o-	2g	-li-
2D	-que	2A	-o-	.	.	.	.
.	.	.	.	4d	-que	4f#i	-o-
=108	=108	=108	=108	=108	=108	=108	=108
4E-i	pro-	4G	-que	4B-y	pro-	4g	-que
4D	.	4d	pro-	2f	-ce-	4b-y	pro-
4F	.	4c	.	.	.	4a	.
4G	.	4B-y	.	4B-y	.	4g	.
!!LO:LB:g=original
=109	=109	=109	=109	=109	=109	=109	=109
4F	.	4c	-ce-	2A	.	8aL	-ce-
.	.	.	.	.	.	8g	.
4D	.	4d	.	.	.	8f	.
.	.	.	.	.	.	8eJ	.
2G	.	2B-y	.	4B-y	.	8dL	.
.	.	.	.	.	.	8cJ	.
.	.	.	.	[4e-X	.	[4g	.
=110	=110	=110	=110	=110	=110	=110	=110
4C	-ce-	4c	.	8e-L]	.	4g]	.
.	.	.	.	8dJ	.	.	.
4F	.	4A	.	2.c	.	2f	.
2C	.	2G	.	.	.	.	.
.	.	.	.	.	.	4e	.
=111	=111	=111	=111	=111	=111	=111	=111
2FF	-dit.	2F	-dit.	4A	-dit.	2f	-dit.
.	.	.	.	4F	Qui	.	.
4r	.	2r	.	4A	cum	2r	.
4FF	Qui	.	.	4A	Pa-	.	.
=112	=112	=112	=112	=112	=112	=112	=112
4AA	cum	1r	.	4.c	-tre	1r	.
4AA	Pa-	.	.	.	.	.	.
.	.	.	.	16B-yLL	.	.	.
.	.	.	.	16AJJ	.	.	.
4C	-tre	.	.	4G	.	.	.
4BB-y	et	.	.	[4B-y	et	.	.
=113	=113	=113	=113	=113	=113	=113	=113
4GG	Fi-	1r	.	4B-]	.	1r	.
4AA	.	.	.	2A	Fi-	.	.
2BB-y	-li-	.	.	.	.	.	.
.	.	.	.	4G	-li-	.	.
=114	=114	=114	=114	=114	=114	=114	=114
2AA	-o,	2r	.	2A	-o,	4r	.
.	.	.	.	.	.	4f	Si-
2r	.	4r	.	2r	.	4a	-mul
.	.	4F	Si-	.	.	4a	ad-
!!LO:LB:g=original
=115	=115	=115	=115	=115	=115	=115	=115
1r	.	4A	-mul	1r	.	4.cc	-o-
.	.	4A	ad-	.	.	.	.
.	.	.	.	.	.	16b-yLL	.
.	.	.	.	.	.	16aJJ	.
.	.	4.c	-o-	.	.	8gL	.
.	.	.	.	.	.	8fJ	.
.	.	.	.	.	.	4cc	.
.	.	8B-y	.	.	.	.	.
=116	=116	=116	=116	=116	=116	=116	=116
1r	.	4G	.	1r	.	4b-y	.
.	.	4A	.	.	.	2a	-ra-
.	.	2B-y	-ra-	.	.	.	.
.	.	.	.	.	.	4g	.
=117	=117	=117	=117	=117	=117	=117	=117
2r	.	2A	-tur:	4r	.	2a	-tur:
.	.	.	.	4A	et	.	.
4r	.	2r	.	4.c	con-	2r	.
4AA	et	.	.	.	.	.	.
.	.	.	.	8B-y	-glo-	.	.
=118	=118	=118	=118	=118	=118	=118	=118
4C	con-	1r	.	4A	-ri-	1r	.
4C	-glo-	.	.	2G	-fi-	.	.
4BB-y	-ri-	.	.	.	.	.	.
4AA	-fi-	.	.	[4F	-ca-	.	.
=119	=119	=119	=119	=119	=119	=119	=119
2GG	-ca-	1r	.	4F]	.	1r	.
.	.	.	.	4E	.	.	.
2FF	-tur:	.	.	2F	-tur:	.	.
=120	=120	=120	=120	=120	=120	=120	=120
4FF	qui	4.c	qui	4.f	qui	4.a	qui
4FF	lo-	.	.	.	.	.	.
.	.	8c	lo-	8f	lo-	8a	lo-
4F	-cu-	4c	-cu-	4f	-cu-	4a	-cu-
4F	-tus	4c	-tus	4f	-tus	4a	-tus
!!LO:LB:g=original
=121	=121	=121	=121	=121	=121	=121	=121
2F	est	2c	est	2f	est	2a	est
4r	.	4r	.	4r	.	4r	.
[4F	per	[4c	per	[4f	per	[4a	per
=122	=122	=122	=122	=122	=122	=122	=122
4F]	.	4c]	.	4f]	.	4a]	.
4C	Pro-	4c	Pro-	4e	Pro-	4g	Pro-
2F	-phe-	2c	-phe-	2f	-phe-	2a	-phe-
=123	=123	=123	=123	=123	=123	=123	=123
1C	-tas.	1c	-tas.	2e	-tas.	1g	-tas.
.	.	.	.	4r	.	.	.
.	.	.	.	4c	Et	.	.
=124	=124	=124	=124	=124	=124	=124	=124
1r	.	1r	.	4d	u-	4r	.
.	.	.	.	4e	-nam	4c	Et
.	.	.	.	4f	san-	4d	u-
.	.	.	.	4d	.	4f	-nam
=125	=125	=125	=125	=125	=125	=125	=125
1r	.	1r	.	2c	-ctam	4e	san-
.	.	.	.	.	.	4e	-ctam
.	.	.	.	4.B-y	ca-	4d	ca-
.	.	.	.	.	.	[4g	-tho-
.	.	.	.	8A	.	.	.
=126	=126	=126	=126	=126	=126	=126	=126
1r	.	1r	.	4G	.	4g]	.
.	.	.	.	2c	-tho-	4e	.
.	.	.	.	.	.	2d	-li-
.	.	.	.	4Bni	-li-	.	.
!!LO:PB:g=original
=127	=127	=127	=127	=127	=127	=127	=127
1r	.	2r	.	2c	-cam.	4c	-cam
.	.	.	.	.	.	4c	et
.	.	4r	.	2r	.	4f	a-
.	.	4C	Et	.	.	4e	-po-
=128	=128	=128	=128	=128	=128	=128	=128
1r	.	4F	a-	1r	.	4f	-sto-
.	.	4E	-po-	.	.	4g	-li-
.	.	4F	-sto-	.	.	4a	-cam
.	.	4G	-li-	.	.	[4b-y	Ec-
=129	=129	=129	=129	=129	=129	=129	=129
1r	.	4A	-cam	1r	.	4b-]	.
.	.	4c	Ec-	.	.	2a	-cle-
.	.	4B-y	-cle-	.	.	.	.
.	.	4B-y	-si-	.	.	4g	-si-
=130	=130	=130	=130	=130	=130	=130	=130
1r	.	2A	-am.	4r	.	2a	-am.
.	.	.	.	4d	Con-	.	.
.	.	2r	.	4c	-fi-	4r	.
.	.	.	.	4B-y	-te-	4dd	Con-
=131	=131	=131	=131	=131	=131	=131	=131
1r	.	1r	.	4A	-or	4cc	-fi-
.	.	.	.	4d	u-	4b-y	-te-
.	.	.	.	8c	-num	4a	-or
.	.	.	.	8A	ba-	.	.
.	.	.	.	4B-y	-pti-	4dd	u-
!!LO:LB:g=original
=132	=132	=132	=132	=132	=132	=132	=132
2r	.	4r	.	4A	-sma.	8cc	-num
.	.	.	.	.	.	8a	bap-
.	.	4d	in	4r	.	4b-y	-tis-
4r	.	4c	re-	2r	.	4a	-ma
4D	in	4B-y	-mis-	.	.	4r	.
=133	=133	=133	=133	=133	=133	=133	=133
4C	re-	4A	-si-	1r	.	1r	.
4BB-y	-mis-	4d	-o-	.	.	.	.
4AA	-si-	8cL	-nem	.	.	.	.
.	.	8AJ	.	.	.	.	.
4D	-o-	4B-y	pec-	.	.	.	.
=134	=134	=134	=134	=134	=134	=134	=134
8CL	-nem	4A	-ca-	1r	.	1r	.
8AAJ	.	.	.	.	.	.	.
4BB-y	pec-	4G	.	.	.	.	.
4.AA	-ca-	4.c	-to-	.	.	.	.
8GG	.	8B-y	.	.	.	.	.
=135	=135	=135	=135	=135	=135	=135	=135
4C	-to-	8AL	.	1r	.	1r	.
.	.	8GJ	.	.	.	.	.
4D	.	4B-y	.	.	.	.	.
4.C	.	4A	.	.	.	.	.
.	.	[4G	.	.	.	.	.
8BB-y	.	.	.	.	.	.	.
!!LO:LB:g=original
=136	=136	=136	=136	=136	=136	=136	=136
4C	.	4G]	.	1r	.	1r	.
4AA	.	2F	.	.	.	.	.
2GG	.	.	.	.	.	.	.
.	.	4E	.	.	.	.	.
=137	=137	=137	=137	=137	=137	=137	=137
*M3/2	*	*M3/2	*	*M3/2	*	*M3/2	*
*met(O|)	*	*met(O|)	*	*met(O|)	*	*met(O|)	*
!!LO:TX:t=[whole]=[whole-dot]
1FF	-rum.	1F	-rum.	2r	.	2%3r	.
.	.	.	.	2r	.	.	.
2r	.	2r	.	2F	Et	.	.
=138	=138	=138	=138	=138	=138	=138	=138
1F	Et	1.r	.	1A	ex-	1.r	.
2G	ex-	.	.	2B-y	-spe-	.	.
=139	=139	=139	=139	=139	=139	=139	=139
4A	-spe-	1.r	.	4c	-cto	2r	.
4G	.	.	.	4B-y	.	.	.
4F	.	.	.	4A	.	2r	.
4E	.	.	.	4G	.	.	.
2F	.	.	.	2A	.	2f	Et
=140	=140	=140	=140	=140	=140	=140	=140
2.D	.	1.r	.	2.f	re-	1a	ex-
4C	.	.	.	4e	-sur-	.	.
2BB-y	.	.	.	2d	-re-	2b-y	-spe-
=141	=141	=141	=141	=141	=141	=141	=141
2AA	.	1.r	.	2c	-cti-	4cc	-cto
.	.	.	.	.	.	4b-y	.
2FF	-cto	.	.	2f	-o-	4a	.
.	.	.	.	.	.	4g	.
2r	.	.	.	2f	-nem	2a	.
!!LO:LB:g=original
=142	=142	=142	=142	=142	=142	=142	=142
1.r	.	1.r	.	4e	mor-	2.cc	re-
.	.	.	.	4d	.	.	.
.	.	.	.	4c	.	.	.
.	.	.	.	4B-y	.	4cc	-sur-
.	.	.	.	2A	.	2cc	-re-
=143	=143	=143	=143	=143	=143	=143	=143
2A	re-	1.r	.	2c	-tu-	2cc	-cti-
2G	-sur-	.	.	4.d	-o-	2b-y	-o-
.	.	.	.	8e	.	.	.
2F	-re-	.	.	2f	-rum.	2a	-nem.
=144	=144	=144	=144	=144	=144	=144	=144
2D	-cti-	1A	Mor-	1.r	.	1.r	.
1F	-o-	.	.	.	.	.	.
.	.	2A	-tu-	.	.	.	.
=145	=145	=145	=145	=145	=145	=145	=145
2E	-nem	4G	-o-	1.r	.	1.r	.
.	.	4A	.	.	.	.	.
2.G	mor-	4B-y	.	.	.	.	.
.	.	4c	.	.	.	.	.
.	.	2d	.	.	.	.	.
4F	.	.	.	.	.	.	.
=146	=146	=146	=146	=146	=146	=146	=146
2E	-tu-	1c	.	1.r	.	1.r	.
1D	-o-	.	.	.	.	.	.
.	.	2Bni	.	.	.	.	.
!!LO:PB:g=original
=147	=147	=147	=147	=147	=147	=147	=147
1C	-rum.	1.c	-rum.	2c	Et	1.r	.
.	.	.	.	2c	vi-	.	.
2F	Et	.	.	2A	-tam	.	.
=148	=148	=148	=148	=148	=148	=148	=148
2F	vi-	2r	.	2A	ven-	2cc	Et
2F	-tam	2r	.	2c	-tu-	2cc	vi-
2F	ven-	2c	Et	2c	-ri	2a	-tam
=149	=149	=149	=149	=149	=149	=149	=149
2F	-tu-	2c	vi-	1F	se-	2cc	ven-
2F	-ri	2A	-tam	.	.	2cc	-tu-
2r	.	2c	ven-	4A	.	2cc	-ri
.	.	.	.	4B-y	.	.	.
=150	=150	=150	=150	=150	=150	=150	=150
1.r	.	2A	-tu-	4c	.	2cc	se-
.	.	.	.	4d	.	.	.
.	.	2G	.	2e	.	2b-y	-cu-
.	.	2F	-ri	2f	.	2a	-li.
=151	=151	=151	=151	=151	=151	=151	=151
*	*	*	*	*	*	*lig	*
2r	.	2G	se-	2d	-cu-	2b-y	A-
2F	se-	2A	.	2c	-li.	2a	.
*	*	*lig	*	*	*	*Xlig	*
2G	.	2B-y	-cu-	2r	.	2g	.
!!LO:LB:g=original
=152	=152	=152	=152	=152	=152	=152	=152
*col	*	*	*	*	*	*	*
1D	-cu-	2A	-li.	2d	A-	4a	.
.	.	.	.	.	.	4g	.
*	*	*Xlig	*	*	*	*	*
.	.	4d	A-	2f	.	4f	.
.	.	4c	.	.	.	4e	.
[2GG	-li.	4B-y	.	2g	.	4d	.
.	.	4A	.	.	.	4c	.
=153	=153	=153	=153	=153	=153	=153	=153
2GG]	.	2G	.	1d	.	2.g	.
*	*	*lig	*	*	*	*	*
2G	A-	2B-y	.	.	.	.	.
.	.	.	.	.	.	4f	.
*	*	*	*	*	*edit	*	*edit
2D	.	2A	.	2d	-men,	2f	-men,
*Xcol	*	*	*	*	*	*	*
*	*	*Xlig	*	*	*	*	*
=154	=154	=154	=154	=154	=154	=154	=154
*lig	*	*	*	*lig	*	*	*
2GG	.	2G	.	2d	a-	2b-y	a-
2D	.	2F	.	2f	.	2a	.
*Xlig	*	*lig	*	*Xlig	*	*	*
2E-X	.	2B-y	.	2g	.	2g	.
=155	=155	=155	=155	=155	=155	=155	=155
2BB-y	.	2d	.	2f	.	2b-y	.
*	*	*Xlig	*	*	*	*	*
4C	.	4c	.	4e-X	.	4a	.
2E-i	.	2B-y	.	2e-i	.	2g	.
4F	.	4A	.	4d	.	4f	.
=156	=156	=156	=156	=156	=156	=156	=156
2D	.	2F	.	2B-y	.	1f	.
*	*	*lig	*	*	*	*	*
1C	.	1G	.	1c	.	.	.
.	.	.	.	.	.	2e	.
=157	=157	=157	=157	=157	=157	=157	=157
1FFl	-men.	1Fl	-men.	1cl	-men.	1fl	-men.
*	*	*Xlig	*	*	*	*	*
==	==	==	==	==	==	==	==
*-	*-	*-	*-	*-	*-	*-	*-
!!!system-decoration: [*]
!!!RDF**kern: j = editorial accidental, optional, paren up
!!!RDF**kern: i = editorial accidental
!!!RDF**kern: l = terminal breve
!!!PTL: Gaspar van Weerbeke: Collected Works. Collected Works. II. Masses, Part 2
!!!ISBN: 978-1-59551-518-6
!!!PPR: American Institute of Musicology
!!!PC#: Corpus Mensurabilis Musicae 106/II.2
!!!PDT: 2018
!!!PED: Kolb, Paul
!!!YEC: Copyright 2016, Kolb, Paul
!!!YEM: CC-BY-NC 4.0 (https://creativecommons.org/licenses/by-nc/4.0/legalcode)
!!!EED: Zybina, Karina
!!!EEV: 2021/11/01
!!!title: @{OPR} &mdash; @{OTL}
